X:386
T:Rondeau de l'Agenais 1
R:rondeau
C:trad.
A:Landes
O:France
Z:S. Piron
M:6/8
L:1/8
Q:1/4=200
K:C
geg fdf|eced2d|geg fdf|eced3:|
|:G2Gc2c|e2ed3|fdf ece|1dBde2c:|2dBdc3||
